X:8
T:Morgiana in Spain in Ld. Wellington’s Camp. Car.08
M:6/8
L:1/8
Q:3/8=110
S:CarlisleMS,Anon.c1812.AGG’s transcription
R:.Jig
O:England
A:Carlisle
N:Repeats vague, and “B.G.” written at end..CGP..
Z:vmp.Chris Partington
K:Bb
D2E F2B|D2E F2B|G2G c2B|AcB AGF|!
D2E F2B|D2E F2B|G2c AGA|B2B “^cr”B3:|!
|:c2B A2d|c2B A2d|c2B A2G|F2F F2d|!
c2B A2d|c2B A2d|cdB ABG|FGE DFC:|

